packages/kaspersky-hexa-ui-icons/src/iconsSVGs/48/Upload2.svg

<svg xmlns="http://www.w3.org/2000/svg" width="48" height="48" fill="none" viewBox="0 0 48 48"><path fill="currentColor" d="M25 33.5858c0 .5523-.4477 1-1 1s-1-.4477-1-1V7l-8.2929 8.2929c-.3905.3905-1.0237.3905-1.4142 0s-.3905-1.0237 0-1.4142l9.2929-9.293c.781-.781 2.0474-.781 2.8284 0l9.2929 9.293c.3905.3905.3905 1.0237 0 1.4142s-1.0237.3905-1.4142 0L25 6.9999z"/><path fill="currentColor" d="M5 30.5c.5523 0 1 .4477 1 1V39c0 1.1046.8954 2 2 2h32c1.1046 0 2-.8954 2-2v-7.5c0-.5523.4477-1 1-1s1 .4477 1 1V39c0 2.2091-1.7909 4-4 4H8c-2.2091 0-4-1.7909-4-4v-7.5c0-.5523.4477-1 1-1"/></svg>

<svg width="48" height="48" viewBox="0 0 48 48" fill="none" xmlns="http://www.w3.org/2000/svg">
<path d="M25 33.5858C25 34.1381 24.5523 34.5858 24 34.5858C23.4477 34.5858 23 34.1381 23 33.5858V7.00003L14.7071 15.2929C14.3166 15.6834 13.6834 15.6834 13.2929 15.2929C12.9024 14.9024 12.9024 14.2692 13.2929 13.8787L22.5858 4.58579C23.3668 3.80474 24.6332 3.80474 25.4142 4.58579L34.7071 13.8787C35.0976 14.2692 35.0976 14.9024 34.7071 15.2929C34.3166 15.6834 33.6834 15.6834 33.2929 15.2929L25 6.99997V33.5858Z" fill="currentColor"/>
<path d="M5 30.5C5.55228 30.5 6 30.9477 6 31.5V39C6 40.1046 6.89543 41 8 41H40C41.1046 41 42 40.1046 42 39V31.5C42 30.9477 42.4477 30.5 43 30.5C43.5523 30.5 44 30.9477 44 31.5V39C44 41.2091 42.2091 43 40 43H8C5.79086 43 4 41.2091 4 39V31.5C4 30.9477 4.44772 30.5 5 30.5Z" fill="currentColor"/>
</svg>
